resources/haticons/SVG/developer_mode.svg

<!-- Generated by IcoMoon.io -->
<svg version="1.1" xmlns="http://www.w3.org/2000/svg" width="24" height="24" viewBox="0 0 24 24">
<title>developer_mode</title>
<path d="M17.016 18.984v-1.969h1.969v3.984q0 0.797-0.586 1.406t-1.383 0.609h-10.031q-0.797 0-1.383-0.609t-0.586-1.406v-3.984h1.969v1.969h10.031zM9.984 15.188l-1.406 1.406-4.594-4.594 4.594-4.594 1.406 1.406-3.141 3.188zM15.422 16.594l-1.406-1.406 3.141-3.188-3.141-3.188 1.406-1.406 4.594 4.594zM6.984 5.016v1.969h-1.969v-3.984q0-0.797 0.586-1.406t1.383-0.609l10.031 0.047q0.797 0 1.383 0.586t0.586 1.383v3.984h-1.969v-1.969h-10.031z"></path>
</svg>

<svg xmlns="http://www.w3.org/2000/svg" width="24" height="24"><path d="M17.016 18.984v-1.969h1.969v3.984q0 .797-.586 1.406t-1.383.609H6.985q-.797 0-1.383-.609t-.586-1.406v-3.984h1.969v1.969h10.031zm-7.032-3.796l-1.406 1.406L3.984 12l4.594-4.594 1.406 1.406L6.843 12zm5.438 1.406l-1.406-1.406L17.157 12l-3.141-3.188 1.406-1.406L20.016 12zM6.984 5.016v1.969H5.015V3.001q0-.797.586-1.406T6.984.986l10.031.047q.797 0 1.383.586t.586 1.383v3.984h-1.969V5.017H6.984z"/></svg>
